dist/img/yt.svg

<svg width="32" height="32" viewBox="0 0 32 32" fill="none" xmlns="http://www.w3.org/2000/svg">
<path d="M16 32C24.8366 32 32 24.8366 32 16C32 7.16344 24.8366 0 16 0C7.16344 0 0 7.16344 0 16C0 24.8366 7.16344 32 16 32Z" fill="#FF0000"/>
<path fill-rule="evenodd" clip-rule="evenodd" d="M24.5019 9.40668C24.96 9.52544 25.3788 9.76249 25.7164 10.0941C26.0541 10.4256 26.2987 10.8401 26.4257 11.296C26.8801 12.9625 26.8801 16.4403 26.8801 16.4403C26.8801 16.4403 26.8801 19.9168 26.4257 21.5846C26.2987 22.0405 26.0541 22.4549 25.7164 22.7865C25.3788 23.1181 24.96 23.3551 24.5019 23.4739C22.8046 23.9206 16.0001 23.9206 16.0001 23.9206C16.0001 23.9206 9.19564 23.9206 7.49836 23.4726C7.04043 23.3539 6.62169 23.1171 6.28407 22.7858C5.94644 22.4544 5.70176 22.0402 5.57452 21.5846C5.12012 19.9168 5.12012 16.439 5.12012 16.439C5.12012 16.439 5.12012 12.9625 5.57452 11.296C5.70156 10.8401 5.94616 10.4256 6.2838 10.0941C6.62144 9.76249 7.04027 9.52544 7.49836 9.40668C9.19564 8.95996 16.0001 8.95996 16.0001 8.95996C16.0001 8.95996 22.8046 8.95996 24.5019 9.40668ZM19.4625 16.4403L13.7755 19.5968V13.2825L19.4625 16.4403Z" fill="white"/>
</svg>

<svg width="32" height="32" fill="none" xmlns="http://www.w3.org/2000/svg"><path d="M16 32c8.837 0 16-7.163 16-16S24.837 0 16 0 0 7.163 0 16s7.163 16 16 16z" fill="red"/><path fill-rule="evenodd" clip-rule="evenodd" d="M24.502 9.407a2.7 2.7 0 011.924 1.889c.454 1.667.454 5.144.454 5.144s0 3.477-.454 5.145a2.7 2.7 0 01-1.924 1.889c-1.697.447-8.502.447-8.502.447s-6.804 0-8.502-.448a2.701 2.701 0 01-1.923-1.888c-.455-1.668-.455-5.146-.455-5.146s0-3.476.455-5.143a2.7 2.7 0 011.923-1.89C9.196 8.96 16 8.96 16 8.96s6.805 0 8.502.447zm-5.04 7.033l-5.687 3.157v-6.315l5.687 3.158z" fill="#fff"/></svg>
